public/avatar/item0/5.svg

<svg xmlns:xlink="http://www.w3.org/1999/xlink" height="58.65" width="49.15" xmlns="http://www.w3.org/2000/svg"><use height="19" transform="translate(5 19.9)" width="37.25" xlink:href="#a"/><defs><g id="a"><path d="M-1.5 11.6q0 1.65-.95 2.85-1 1.15-2.35 1.15h-3.15l-.65 2.55-2.65-2.9q-.5-.55-1.3-.55l-3.95.25 1.95-3.4q.4-.7.1-1.45l-1.4-3.65 3.8.8q.8.15 1.4-.35l3-2.45h.05l.35 3.2h2.45q1.35 0 2.35 1.15.95 1.15.95 2.8" fill="#ff6800" fill-opacity=".302" fill-rule="evenodd" transform="translate(19.1 -1.8)"/><path d="m3.2 4.65 3.55.8q1 .35 2.25-.75l2.45-2.05" fill="none" stroke="#ba2b00" stroke-linecap="round" stroke-linejoin="round" stroke-width="2"/><path d="m.4 14.65.4.2-.1.2-.3-.4m-5.2-10q2.55 0 4.3 1.85l-1.15 1.6 1.1.6-.6.3q-1.2-2.35-3.65-2.35h-1.95L-7 4.35q0-.4-.4-.55l-.65.1-3.4 2.85-3.85-.8-.3-.1h-.15q-.4-.1-.6.2l-.1.15-.05.5 1.65 4.1-2.15 3.75v.05l-.1.15.1.55q.15.3.55.3h.15l.35-.05 3.9-.25.35.35 2.65 2.9q.2.3.6.2l.45-.35.05-.15.4-1.65h2.75q2.5 0 3.8-2.6l.75.35-1.4.75 1.15 1.6q-1.8 1.9-4.3 1.9H-6v.15l-.05.05v.05l-.1.2v.1q-.5 1.2-1.8 1.55l-.65.1q-1.15 0-1.95-.9l-2.3-2.55-3.45.25q-1.55.1-2.4-1.25-.65-1.2-.2-2.4v-.05l.1-.2v-.05h.05l1.7-3-1.3-3.2q-.35-.95.05-1.95l.4-.75q1-1.15 2.55-.85l3.4.65L-9.3 2.4q1.2-.95 2.65-.45Q-5.15 2.6-5 4.1v.15l.05.3v.1h.15" fill-rule="evenodd" transform="translate(19.1 -1.8)"/><path d="M17.35 5.5q.4.95 0 1.95l-1.25 3.2 1.7 3v.05l.1.2v.05h.05q.45 1.2-.25 2.4-.75 1.25-2.2 1.25h-.2l-3.4-.25-2.35 2.55q-.8.9-1.95.9l-.65-.1q-1.3-.35-1.8-1.55v-.1l-.1-.2v-.05L5 18.75v-.15H3.85q-3.7 0-5.5-3.5l1.75-.95q1.3 2.45 3.75 2.45h2.7l.4 1.65.05.15.45.35q.4.1.65-.2l2.95-3.25 3.95.25.3.05h.15q.4 0 .6-.3l.05-.55-.05-.15-2.2-3.8 1.65-4.1v-.5l-.15-.15q-.15-.3-.6-.2h-.1l-.35.1-3.85.8-3.4-2.85-.65-.1Q6 4 6 4.35l-.25 2.3h-1.9q-2.5 0-3.7 2.4l-1.8-.95Q.2 4.65 3.85 4.65h.1v-.1l.05-.3V4.1q.15-1.5 1.65-2.15 1.45-.5 2.65.45L11 4.55l3.35-.65q1.55-.3 2.55.85l.45.75" fill-rule="evenodd" transform="translate(19.1 -1.8)"/><path d="m13.55 11.55 1.95 3.4-3.95-.25q-.8 0-1.3.55l-2.65 2.9-.65-2.55h-3.1q-1.4 0-2.35-1.15-1-1.2-1-2.85 0-1.65 1-2.8.95-1.15 2.35-1.15H6.3l.35-3.2 3 2.45q.6.5 1.4.35l3.85-.8-1.45 3.65q-.3.75.1 1.45" fill="#ff008c" fill-opacity=".302" fill-rule="evenodd" transform="translate(19.1 -1.8)"/><path d="M-2.5 8.8q-.95-1.15-2.35-1.15h-2.4l-.4-3.2-3 2.45q-.6.5-1.4.35l-3.85-.8 1.45 3.65q.3.75-.1 1.45l-1.9 3.4 3.9-.25q.75-.05 1.3.55l2.65 2.9.65-2.55h3.1q1.4 0 2.35-1.15 1-1.2 1-2.85 0-1.65-1-2.8M-6 4.25l.15 1.4h1q2.2 0 3.8 1.75Q.5 9.15.5 11.6q0 2.5-1.55 4.25-1.6 1.75-3.8 1.75h-1.9l-.3 1.15q-.3.75-1.15 1-1 .15-1.6-.5l-2.65-2.9-3.9.25q-1.05 0-1.5-.8-.5-.7-.15-1.45l2.05-3.65-1.45-3.65q-.2-.6 0-1.2l.25-.45q.65-.7 1.6-.55l3.85.8 3.05-2.5Q-7.9 2.5-7 2.9q.9.35 1 1.35" fill="#ff6a00" fill-rule="evenodd" transform="translate(19.1 -1.8)"/><path d="m25.2 2.4 3.3 2.8q1 .7 2.4.45l3.85-.85" fill="none" stroke="#ba0070" stroke-linecap="round" stroke-linejoin="round" stroke-width="2"/><path d="M14.55 4.85q.95-.15 1.6.55l.25.45q.25.6 0 1.2l-1.45 3.65L17 14.35q.3.7-.1 1.45-.5.8-1.5.8l-3.95-.25-2.65 2.9q-.6.65-1.6.5-.8-.25-1.1-1l-.1-.2-.25-.95h-1.9q-2.2 0-3.8-1.75Q-1.5 14.1-1.5 11.6q0-2.45 1.55-4.2 1.6-1.75 3.8-1.75h1L5 4.25q.1-1 1-1.35.9-.4 1.7.25l3 2.5 3.85-.8m-1 6.7q-.4-.7-.1-1.45l1.45-3.65-3.85.8q-.8.15-1.4-.35l-3-2.45-.35 3.2H3.85q-1.4 0-2.35 1.15-1 1.15-1 2.8t1 2.85q.95 1.15 2.35 1.15h3.1l.65 2.55 2.65-2.9q.55-.6 1.3-.55l3.95.25-1.95-3.4" fill="#f09" fill-rule="evenodd" transform="translate(19.1 -1.8)"/><path d="M16.55 5.7q0 1.15-1.15 1.15-1.2 0-1.2-1.15 0-1.2 1.2-1.2 1.15 0 1.15 1.2" fill="#ffc4e8" fill-rule="evenodd" transform="translate(19.1 -1.8)"/><path d="M-5.55 3.75q0 1.2-1.15 1.2t-1.15-1.2q0-1.15 1.15-1.15t1.15 1.15" fill="#ffdbd4" fill-rule="evenodd" transform="translate(19.1 -1.8)"/><path d="m7.7 3.15 3.35 2.7 4.25-.9M6.55 15.8l1 2.9" fill="none" stroke="#ffc4e8" stroke-linecap="round" stroke-linejoin="round" transform="translate(19.1 -1.8)"/><path d="m-6 4.25.15 1.4L-3.6 6l2.15 1.1" fill="none" stroke="#ffd5cc" stroke-linecap="round" stroke-linejoin="round" transform="translate(19.1 -1.8)"/><path d="m-11.55 15.25 2.95 3.1" fill="none" stroke="#ffd9d1" stroke-linecap="round" stroke-linejoin="round" transform="translate(19.1 -1.8)"/></g></defs></svg>

<?xml version="1.0" encoding="UTF-8" standalone="no"?>
<svg xmlns:xlink="http://www.w3.org/1999/xlink" height="58.65px" width="49.15px" xmlns="http://www.w3.org/2000/svg">
  <g transform="matrix(1.0, 0.0, 0.0, 1.0, 24.1, 18.1)">
    <use height="19.0" transform="matrix(1.0, 0.0, 0.0, 1.0, -19.1, 1.8)" width="37.25" xlink:href="#shape0"/>
  </g>
  <defs>
    <g id="shape0" transform="matrix(1.0, 0.0, 0.0, 1.0, 19.1, -1.8)">
      <path d="M-1.5 11.6 Q-1.5 13.25 -2.45 14.45 -3.45 15.6 -4.8 15.6 L-7.95 15.6 -8.6 18.15 -11.25 15.25 Q-11.75 14.7 -12.55 14.7 L-16.5 14.95 -14.55 11.55 Q-14.15 10.85 -14.45 10.1 L-15.85 6.45 -12.05 7.25 Q-11.25 7.4 -10.65 6.9 L-7.65 4.45 -7.6 4.45 -7.25 7.65 -4.8 7.65 Q-3.45 7.65 -2.45 8.8 -1.5 9.95 -1.5 11.6" fill="#ff6800" fill-opacity="0.3019608" fill-rule="evenodd" stroke="none"/>
      <path d="M-15.9 6.45 L-12.35 7.25 Q-11.35 7.6 -10.1 6.5 L-7.65 4.45" fill="none" stroke="#ba2b00" stroke-linecap="round" stroke-linejoin="round" stroke-width="2.0"/>
      <path d="M0.4 14.65 L0.8 14.85 0.7 15.05 0.4 14.65 M-4.8 4.65 Q-2.25 4.65 -0.5 6.5 L-1.65 8.1 -0.55 8.7 -1.15 9.0 Q-2.35 6.65 -4.8 6.65 L-6.75 6.65 -7.0 4.35 Q-7.0 3.95 -7.4 3.8 L-8.05 3.9 -11.45 6.75 -15.3 5.95 -15.6 5.85 -15.75 5.85 Q-16.15 5.75 -16.35 6.05 L-16.45 6.2 -16.5 6.7 -14.85 10.8 -17.0 14.55 -17.0 14.6 -17.1 14.75 -17.0 15.3 Q-16.85 15.6 -16.45 15.6 L-16.3 15.6 -15.95 15.55 -12.05 15.3 -11.7 15.65 -9.05 18.55 Q-8.85 18.85 -8.45 18.75 L-8.0 18.4 -7.95 18.25 -7.55 16.6 -4.8 16.6 Q-2.3 16.6 -1.0 14.0 L-0.25 14.35 -1.65 15.1 -0.5 16.7 Q-2.3 18.6 -4.8 18.6 L-6.0 18.6 -6.0 18.75 -6.05 18.8 -6.05 18.85 -6.15 19.05 -6.15 19.15 Q-6.65 20.35 -7.95 20.7 L-8.6 20.8 Q-9.75 20.8 -10.55 19.9 L-12.85 17.35 -16.3 17.6 Q-17.85 17.7 -18.7 16.35 -19.35 15.15 -18.9 13.95 L-18.9 13.9 -18.8 13.7 -18.8 13.65 -18.75 13.65 -17.05 10.65 -18.35 7.45 Q-18.7 6.5 -18.3 5.5 L-17.9 4.75 Q-16.9 3.6 -15.35 3.9 L-11.95 4.55 -9.3 2.4 Q-8.1 1.45 -6.65 1.95 -5.15 2.6 -5.0 4.1 L-5.0 4.25 -4.95 4.55 -4.95 4.65 -4.8 4.65" fill="#000000" fill-rule="evenodd" stroke="none"/>
      <path d="M17.35 5.5 Q17.75 6.45 17.35 7.45 L16.1 10.65 17.8 13.65 17.8 13.7 17.9 13.9 17.9 13.95 17.95 13.95 Q18.4 15.15 17.7 16.35 16.95 17.6 15.5 17.6 L15.3 17.6 11.9 17.35 9.55 19.9 Q8.75 20.8 7.6 20.8 L6.95 20.7 Q5.65 20.35 5.15 19.15 L5.15 19.05 5.05 18.85 5.05 18.8 5.0 18.75 5.0 18.6 3.85 18.6 Q0.15 18.6 -1.65 15.1 L0.1 14.15 Q1.4 16.6 3.85 16.6 L6.55 16.6 6.95 18.25 7.0 18.4 7.45 18.75 Q7.85 18.85 8.1 18.55 L11.05 15.3 15.0 15.55 15.3 15.6 15.45 15.6 Q15.85 15.6 16.05 15.3 L16.1 14.75 16.05 14.6 13.85 10.8 15.5 6.7 15.5 6.2 15.35 6.05 Q15.2 5.75 14.75 5.85 L14.65 5.85 14.3 5.95 10.45 6.75 7.05 3.9 6.4 3.8 Q6.0 4.0 6.0 4.35 L5.75 6.65 3.85 6.65 Q1.35 6.65 0.15 9.05 L-1.65 8.1 Q0.2 4.65 3.85 4.65 L3.95 4.65 3.95 4.55 4.0 4.25 4.0 4.1 Q4.15 2.6 5.65 1.95 7.1 1.45 8.3 2.4 L11.0 4.55 14.35 3.9 Q15.9 3.6 16.9 4.75 L17.35 5.5" fill="#000000" fill-rule="evenodd" stroke="none"/>
      <path d="M13.55 11.55 L15.5 14.95 11.55 14.7 Q10.75 14.7 10.25 15.25 L7.6 18.15 6.95 15.6 3.85 15.6 Q2.45 15.6 1.5 14.45 0.5 13.25 0.5 11.6 0.5 9.95 1.5 8.8 2.45 7.65 3.85 7.65 L6.3 7.65 6.65 4.45 9.65 6.9 Q10.25 7.4 11.05 7.25 L14.9 6.45 13.45 10.1 Q13.15 10.85 13.55 11.55" fill="#ff008c" fill-opacity="0.3019608" fill-rule="evenodd" stroke="none"/>
      <path d="M-2.5 8.8 Q-3.45 7.65 -4.85 7.65 L-7.25 7.65 -7.65 4.45 -10.65 6.9 Q-11.25 7.4 -12.05 7.25 L-15.9 6.45 -14.45 10.1 Q-14.15 10.85 -14.55 11.55 L-16.45 14.95 -12.55 14.7 Q-11.8 14.65 -11.25 15.25 L-8.6 18.15 -7.95 15.6 -4.85 15.6 Q-3.45 15.6 -2.5 14.45 -1.5 13.25 -1.5 11.6 -1.5 9.95 -2.5 8.8 M-6.0 4.25 L-5.85 5.65 -4.85 5.65 Q-2.65 5.65 -1.05 7.4 0.5 9.15 0.5 11.6 0.5 14.1 -1.05 15.85 -2.65 17.6 -4.85 17.6 L-6.75 17.6 -7.05 18.75 Q-7.35 19.5 -8.2 19.75 -9.2 19.9 -9.8 19.25 L-12.45 16.35 -16.35 16.6 Q-17.4 16.6 -17.85 15.8 -18.35 15.1 -18.0 14.35 L-15.95 10.7 -17.4 7.05 Q-17.6 6.45 -17.4 5.85 L-17.15 5.4 Q-16.5 4.7 -15.55 4.85 L-11.7 5.65 -8.65 3.15 Q-7.9 2.5 -7.0 2.9 -6.1 3.25 -6.0 4.25" fill="#ff6a00" fill-rule="evenodd" stroke="none"/>
      <path d="M6.1 4.2 L9.4 7.0 Q10.4 7.7 11.8 7.45 L15.65 6.6" fill="none" stroke="#ba0070" stroke-linecap="round" stroke-linejoin="round" stroke-width="2.0"/>
      <path d="M14.55 4.85 Q15.5 4.7 16.15 5.4 L16.4 5.85 Q16.65 6.45 16.4 7.05 L14.95 10.7 17.0 14.35 Q17.3 15.05 16.9 15.8 16.4 16.6 15.4 16.6 L11.45 16.35 8.8 19.25 Q8.2 19.9 7.2 19.75 6.4 19.5 6.1 18.75 L6.0 18.55 5.75 17.6 3.85 17.6 Q1.65 17.6 0.05 15.85 -1.5 14.1 -1.5 11.6 -1.5 9.15 0.05 7.4 1.65 5.65 3.85 5.65 L4.85 5.65 5.0 4.25 Q5.1 3.25 6.0 2.9 6.9 2.5 7.7 3.15 L10.7 5.65 14.55 4.85 M13.55 11.55 Q13.15 10.85 13.45 10.1 L14.9 6.45 11.05 7.25 Q10.25 7.4 9.65 6.9 L6.65 4.45 6.3 7.65 3.85 7.65 Q2.45 7.65 1.5 8.8 0.5 9.95 0.5 11.6 0.5 13.25 1.5 14.45 2.45 15.6 3.85 15.6 L6.95 15.6 7.6 18.15 10.25 15.25 Q10.8 14.65 11.55 14.7 L15.5 14.95 13.55 11.55" fill="#ff0099" fill-rule="evenodd" stroke="none"/>
      <path d="M16.55 5.7 Q16.55 6.85 15.4 6.85 14.2 6.85 14.2 5.7 14.2 4.5 15.4 4.5 16.55 4.5 16.55 5.7" fill="#ffc4e8" fill-rule="evenodd" stroke="none"/>
      <path d="M-5.55 3.75 Q-5.55 4.95 -6.7 4.95 -7.85 4.95 -7.85 3.75 -7.85 2.6 -6.7 2.6 -5.55 2.6 -5.55 3.75" fill="#ffdbd4" fill-rule="evenodd" stroke="none"/>
      <path d="M7.7 3.15 L11.05 5.85 15.3 4.95" fill="none" stroke="#ffc4e8" stroke-linecap="round" stroke-linejoin="round" stroke-width="1.0"/>
      <path d="M6.55 15.8 L7.55 18.7" fill="none" stroke="#ffc4e8" stroke-linecap="round" stroke-linejoin="round" stroke-width="1.0"/>
      <path d="M-6.0 4.25 L-5.85 5.65 -3.6 6.0 -1.45 7.1" fill="none" stroke="#ffd5cc" stroke-linecap="round" stroke-linejoin="round" stroke-width="1.0"/>
      <path d="M-11.55 15.25 L-8.6 18.35" fill="none" stroke="#ffd9d1" stroke-linecap="round" stroke-linejoin="round" stroke-width="1.0"/>
    </g>
  </defs>
</svg>
